images/icons/generic-rss.svg

<svg fill="none" height="24" viewBox="0 0 24 24" width="24" xmlns="http://www.w3.org/2000/svg" xmlns:xlink="http://www.w3.org/1999/xlink"><clipPath id="a"><path d="m0 0h24v24h-24z"/></clipPath><g clip-path="url(#a)"><path d="m2.83516 24c-.77967 0-1.44711-.2776-2.002332-.8328-.555219-.5552-.832828-1.2227-.832828-2.0023 0-.7797.277609-1.4471.832828-2.0024.555222-.5552 1.222662-.8328 2.002332-.8328s1.44711.2776 2.00233.8328c.55522.5553.83283 1.2227.83283 2.0024 0 .7796-.27761 1.4471-.83283 2.0023s-1.22266.8328-2.00233.8328zm19.10184 0c-.567 0-1.0572-.2008-1.4707-.6025-.4135-.4016-.6556-.8978-.7265-1.4884-.2363-2.3154-.8565-4.489-1.8606-6.5208-1.0041-2.0319-2.2917-3.8334-3.8629-5.4045-1.5711-1.57114-3.3726-2.85876-5.4045-3.86288-2.03187-1.00411-4.20549-1.62429-6.52087-1.86055-.59066-.07088-1.08681-.31896-1.488459-.74423-.401647-.42527-.602471-.93323-.602471-1.52388 0-.59066.20673-1.080898.620191-1.470729.413459-.389831.903709-.5611207 1.470739-.51386847 2.90604.23626147 5.63488.96867147 8.18657 2.19722747 2.5516 1.22856 4.802 2.81742 6.7512 4.76658 1.9492 1.94915 3.538 4.19953 4.7666 6.75113 1.2286 2.5517 1.961 5.2805 2.1972 8.1865.0473.567-.1299 1.0573-.5316 1.4707-.4016.4135-.9096.6202-1.5239.6202zm-8.5054 0c-.5434 0-1.0337-.1949-1.4708-.5847-.4371-.3899-.7147-.8919-.8328-1.5062-.4253-2.2917-1.46483-4.2645-3.11867-5.9184-1.65385-1.6538-3.62665-2.6933-5.9184-3.1186-.61428-.1181-1.116344-.4017-1.506178-.8505-.389835-.4489-.584752-.9569-.584752-1.5239 0-.61431.212637-1.11046.637911-1.48848.425269-.37802.909609-.53159 1.453019-.46071 3.4967.47252 6.47952 1.94329 8.94847 4.41219 2.469 2.4689 3.9397 5.4517 4.4122 8.9484.0709.5434-.0945 1.0277-.4961 1.453-.4017.4253-.9096.6379-1.5239.6379z" fill="#fff"/></g></svg>

<svg width="24" height="24" viewBox="0 0 24 24" fill="none" xmlns="http://www.w3.org/2000/svg">
<g clip-path="url(#clip0_1436_662)">
<path d="M2.83516 24C2.05549 24 1.38805 23.7224 0.832828 23.1672C0.277609 22.612 0 21.9445 0 21.1649C0 20.3852 0.277609 19.7178 0.832828 19.1625C1.38805 18.6073 2.05549 18.3297 2.83516 18.3297C3.61483 18.3297 4.28227 18.6073 4.83749 19.1625C5.39271 19.7178 5.67032 20.3852 5.67032 21.1649C5.67032 21.9445 5.39271 22.612 4.83749 23.1672C4.28227 23.7224 3.61483 24 2.83516 24ZM21.937 24C21.37 24 20.8798 23.7992 20.4663 23.3975C20.0528 22.9959 19.8107 22.4997 19.7398 21.9091C19.5035 19.5937 18.8833 17.4201 17.8792 15.3883C16.8751 13.3564 15.5875 11.5549 14.0163 9.9838C12.4452 8.41266 10.6437 7.12504 8.6118 6.12092C6.57993 5.11681 4.40631 4.49663 2.09093 4.26037C1.50027 4.18949 1.00412 3.94141 0.602471 3.51614C0.200824 3.09087 0 2.58291 0 1.99226C0 1.4016 0.20673 0.911362 0.620191 0.521531C1.03365 0.1317 1.5239 -0.0395897 2.09093 0.00766253C4.99697 0.243924 7.72581 0.976334 10.2775 2.20489C12.8291 3.43345 15.0795 5.02231 17.0287 6.97147C18.9779 8.92062 20.5667 11.171 21.7953 13.7226C23.0239 16.2743 23.7563 19.0031 23.9925 21.9091C24.0398 22.4761 23.8626 22.9664 23.4609 23.3798C23.0593 23.7933 22.5513 24 21.937 24ZM13.4316 24C12.8882 24 12.3979 23.8051 11.9608 23.4153C11.5237 23.0254 11.2461 22.5234 11.128 21.9091C10.7027 19.6174 9.66317 17.6446 8.00933 15.9907C6.35548 14.3369 4.38268 13.2974 2.09093 12.8721C1.47665 12.754 0.974586 12.4704 0.584752 12.0216C0.194917 11.5727 0 11.0647 0 10.4977C0 9.88339 0.212637 9.38724 0.637911 9.00922C1.06318 8.6312 1.54752 8.47763 2.09093 8.54851C5.58763 9.02103 8.57045 10.4918 11.0394 12.9607C13.5084 15.4296 14.9791 18.4124 15.4516 21.9091C15.5225 22.4525 15.3571 22.9368 14.9555 23.3621C14.5538 23.7874 14.0459 24 13.4316 24Z" fill="white"/>
</g>
<defs>
<clipPath id="clip0_1436_662">
<rect width="24" height="24" fill="white"/>
</clipPath>
</defs>
</svg>
